X: 28
U:~=!turn!
M:C
L:1/8
K:Eb
E |\
g |\
{/d}e>gB<g e<gb>g | {/g}a>g{/g}f>e d<BB<g | e<gB>g e/f/g/a/ bg | {/g}af (e/d/).c/.B/ {/d}e2 eg |
g<eB<G e<BG<E | A<GF>E D<B, B,2 | G,<EE>A G<eB<g | fd (e/d/).c/.B/ {/d}e2- e |]


